X: 1
T: the Hon. Mrs Maule's Favourite
R: reel
Z: 2005 John Chambers <jc:trillian.mit.edu>
B: RSCDS __-__ #2
M: C|
L: 1/8
K: A
e \
| "A"agae ceAc | "D"dFBA "E7"GBEG | "A"A2cA "D"FDfe | "Bm"dcBA "E7"GEg2 |
| "A"agae ceAc | "D"dFBA "E7"GBEG | "A"AecA "Bm"FfdB | "E7"GEFG "A"A2 A |]
d \
| "A"cBcd eca2 | "D"fdb2 "E7"gefg | "A"aefc "D"dfBd | "E7"ceGB "A"A3 :|
